images/guide-video.svg

<svg width="24" height="24" viewBox="0 0 24 24" fill="none" xmlns="http://www.w3.org/2000/svg">
<path fill-rule="evenodd" clip-rule="evenodd" d="M4 6C2.89543 6 2 6.89543 2 8V16C2 17.1046 2.89543 18 4 18H14C15.1046 18 16 17.1046 16 16V8C16 6.89543 15.1046 6 14 6H4ZM17 9L20.4855 6.9087C21.152 6.50878 22 6.9889 22 7.76619V16.2338C22 17.0111 21.152 17.4912 20.4855 17.0913L17 15V9Z" fill="#2A7DEC"/>
</svg>

<?xml version="1.0" encoding="UTF-8"?>
<svg width="24" height="24" fill="none" version="1.1" viewBox="0 0 24 24" xmlns="http://www.w3.org/2000/svg">
 <path d="m4 6c-1.1046 0-2 0.89543-2 2v8c0 1.1046 0.89543 2 2 2h10c1.1046 0 2-0.8954 2-2v-8c0-1.1046-0.8954-2-2-2h-10zm13 3 3.4855-2.0913c0.6665-0.39992 1.5145 0.0802 1.5145 0.85749v8.4676c0 0.7773-0.848 1.2574-1.5145 0.8575l-3.4855-2.0913v-6z" clip-rule="evenodd" fill="#000" fill-rule="evenodd"/>
</svg>
